img/instagram-mobile.svg

<svg width="50" height="50" viewBox="0 0 50 50" fill="none" xmlns="http://www.w3.org/2000/svg">
<path d="M20.2148 25C20.2148 27.6428 22.3572 29.7852 25 29.7852C27.6428 29.7852 29.7852 27.6428 29.7852 25C29.7852 22.3572 27.6428 20.2148 25 20.2148C22.3572 20.2148 20.2148 22.3572 20.2148 25Z" fill="#CACACA"/>
<path d="M13.8096 16.5338C14.0397 15.9105 14.4066 15.3463 14.8835 14.8832C15.3466 14.4064 15.9104 14.0394 16.5341 13.8094C17.0399 13.6129 17.7998 13.3791 19.1994 13.3154C20.7135 13.2463 21.1674 13.2314 25.0004 13.2314C28.8338 13.2314 29.2878 13.2459 30.8014 13.315C32.201 13.3791 32.9613 13.6129 33.4668 13.8094C34.0905 14.0394 34.6547 14.4064 35.1174 14.8832C35.5942 15.3463 35.9612 15.9101 36.1916 16.5338C36.3881 17.0397 36.6219 17.7999 36.6856 19.1995C36.7547 20.7132 36.7695 21.1672 36.7695 25.0006C36.7695 28.8336 36.7547 29.2875 36.6856 30.8016C36.6219 32.2012 36.3881 32.9611 36.1916 33.4669C35.9612 34.0906 35.5946 34.6544 35.1178 35.1175C34.6547 35.5943 34.0909 35.9613 33.4671 36.1913C32.9613 36.3882 32.201 36.622 30.8014 36.6857C29.2878 36.7548 28.8342 36.7693 25.0008 36.7693C21.167 36.7693 20.7131 36.7548 19.1998 36.6857C17.8002 36.622 17.0399 36.3882 16.5341 36.1913C15.2821 35.7084 14.2926 34.7189 13.8096 33.4669C13.6132 32.9611 13.3793 32.2012 13.3152 30.8016C13.2462 29.2875 13.2317 28.8336 13.2317 25.0006C13.2317 21.1672 13.2462 20.7132 13.3152 19.1995C13.379 17.7999 13.6128 17.0397 13.8096 16.5338ZM25.0004 32.3717C29.0719 32.3717 32.3723 29.0716 32.3723 25.0002C32.3723 20.9287 29.0719 17.6286 25.0004 17.6286C20.9294 17.6286 17.6289 20.9287 17.6289 25.0002C17.6289 29.0716 20.9294 32.3717 25.0004 32.3717ZM17.3375 19.0599C18.2888 19.0599 19.0602 18.2886 19.0602 17.3372C19.0602 16.3858 18.2888 15.6145 17.3375 15.6145C16.3861 15.6145 15.6147 16.3858 15.6147 17.3372C15.6151 18.2886 16.3861 19.0599 17.3375 19.0599Z" fill="#CACACA"/>
<path d="M25 0C38.805 0 50 11.195 50 25C50 38.805 38.805 50 25 50C11.195 50 0 38.805 0 25C0 11.195 11.195 0 25 0ZM10.7311 30.9185C10.8006 32.4467 11.0435 33.49 11.3983 34.4032C12.1441 36.3316 13.6684 37.8559 15.5968 38.6017C16.5096 38.9565 17.5533 39.1991 19.0811 39.2689C20.612 39.3387 21.101 39.3555 24.9996 39.3555C28.8986 39.3555 29.3873 39.3387 30.9185 39.2689C32.4463 39.1991 33.49 38.9565 34.4028 38.6017C35.3611 38.2412 36.2286 37.6762 36.9457 36.9457C37.6759 36.2289 38.2408 35.3611 38.6013 34.4032C38.9561 33.4904 39.1991 32.4467 39.2685 30.9189C39.3391 29.3877 39.3555 28.8986 39.3555 25C39.3555 21.1014 39.3391 20.6123 39.2689 19.0815C39.1994 17.5533 38.9568 16.51 38.6021 15.5968C38.2416 14.6389 37.6762 13.7711 36.9457 13.0543C36.2289 12.3238 35.3611 11.7588 34.4032 11.3983C33.49 11.0435 32.4467 10.8009 30.9185 10.7311C29.3877 10.6613 28.8986 10.6445 25 10.6445C21.1014 10.6445 20.6123 10.6613 19.0815 10.7315C17.5533 10.8009 16.51 11.0435 15.5968 11.3979C14.6389 11.7584 13.7711 12.3238 13.0539 13.0543C12.3238 13.7714 11.7584 14.6389 11.3983 15.5968C11.0432 16.51 10.8006 17.5533 10.7307 19.0815C10.6609 20.6123 10.6445 21.1014 10.6445 25C10.6445 28.8986 10.6609 29.3877 10.7311 30.9185Z" fill="#CACACA"/>
</svg>

<svg width="50" height="50" fill="none" xmlns="http://www.w3.org/2000/svg"><path d="M20.215 25a4.785 4.785 0 109.57 0 4.785 4.785 0 00-9.57 0z" fill="#CACACA"/><path d="M13.81 16.534a4.448 4.448 0 011.073-1.65 4.445 4.445 0 011.651-1.075c.506-.196 1.266-.43 2.665-.494 1.514-.069 1.968-.084 5.801-.084 3.834 0 4.288.015 5.801.084 1.4.064 2.16.298 2.666.494.623.23 1.188.597 1.65 1.074a4.45 4.45 0 011.075 1.65c.196.507.43 1.267.494 2.666.069 1.514.084 1.968.084 5.802 0 3.833-.015 4.287-.084 5.8-.064 1.4-.298 2.16-.494 2.666a4.45 4.45 0 01-1.074 1.65 4.444 4.444 0 01-1.65 1.074c-.507.197-1.267.431-2.667.495-1.513.069-1.967.083-5.8.083-3.834 0-4.288-.014-5.801-.083-1.4-.064-2.16-.298-2.666-.495a4.754 4.754 0 01-2.724-2.724c-.197-.506-.43-1.266-.495-2.665-.069-1.514-.083-1.968-.083-5.801 0-3.834.014-4.288.083-5.802.064-1.4.298-2.16.495-2.665zM25 32.372a7.371 7.371 0 10.001-14.743 7.371 7.371 0 000 14.743zM17.337 19.06a1.723 1.723 0 100-3.446 1.723 1.723 0 000 3.446z" fill="#CACACA"/><path d="M25 0c13.805 0 25 11.195 25 25S38.805 50 25 50 0 38.805 0 25 11.195 0 25 0zM10.731 30.919c.07 1.528.313 2.571.667 3.484a7.34 7.34 0 004.199 4.199c.913.355 1.956.597 3.484.667 1.531.07 2.02.087 5.919.087 3.899 0 4.387-.017 5.919-.087 1.527-.07 2.571-.313 3.484-.667a7.033 7.033 0 002.543-1.656 7.035 7.035 0 001.655-2.543c.355-.913.598-1.956.668-3.484.07-1.531.087-2.02.087-5.919 0-3.899-.017-4.388-.087-5.919-.07-1.528-.312-2.571-.667-3.484a7.033 7.033 0 00-1.656-2.543 7.032 7.032 0 00-2.543-1.656c-.913-.354-1.956-.597-3.484-.667-1.531-.07-2.02-.086-5.919-.086-3.899 0-4.388.016-5.919.087-1.528.069-2.571.312-3.484.666a7.038 7.038 0 00-2.543 1.656 7.033 7.033 0 00-1.656 2.543c-.355.913-.597 1.956-.667 3.484-.07 1.531-.086 2.02-.086 5.919 0 3.899.016 4.388.086 5.919z" fill="#CACACA"/></svg>
